status/symbolic/appointment-missed-symbolic.svg

<?xml version="1.0" encoding="UTF-8" standalone="no"?>
<svg
   id="svg8"
   version="1.1"
   width="16.001"
   height="16"
   xmlns="http://www.w3.org/2000/svg"
   xmlns:svg="http://www.w3.org/2000/svg"
   xmlns:rdf="http://www.w3.org/1999/02/22-rdf-syntax-ns#"
   xmlns:cc="http://creativecommons.org/ns#"
   xmlns:dc="http://purl.org/dc/elements/1.1/">
  <metadata
     id="metadata14">
    <rdf:RDF>
      <cc:Work
         rdf:about="">
        <dc:format>image/svg+xml</dc:format>
        <dc:type
           rdf:resource="http://purl.org/dc/dcmitype/StillImage" />
      </cc:Work>
    </rdf:RDF>
  </metadata>
  <defs
     id="defs12" />
  <path
     id="path2"
     d="M 7.5 0 C 3.37 0 0 3.37 0 7.5 C 0 11.63 3.37 15 7.5 15 C 7.928 15 8.3449062 14.955719 8.7539062 14.886719 A 4.411 4.411 0 0 1 8.0917969 12.96875 C 7.8977969 12.98875 7.7 13 7.5 13 C 4.45 13 2 10.55 2 7.5 C 2 4.45 4.45 2 7.5 2 A 5.485 5.485 0 0 1 12.966797 8.09375 A 4.409 4.409 0 0 1 14.884766 8.7539062 A 7.46 7.46 0 0 0 15 7.5 C 15 3.37 11.63 0 7.5 0 z M 10.464844 4.0019531 A 0.5 0.5 0 0 0 10.416016 4.0058594 A 0.425 0.425 0 0 0 10.392578 4.0097656 L 10.392578 4.0175781 A 0.5 0.5 0 0 0 10.142578 4.1738281 L 7.4863281 6.8222656 L 5.8300781 5.1738281 A 0.5 0.5 0 1 0 5.1425781 5.8613281 L 7.1425781 7.8613281 A 0.5 0.5 0 0 0 7.8300781 7.8613281 L 10.830078 4.8613281 A 0.5 0.5 0 0 0 10.464844 4.0019531 z "
     style="color:#000000;font-weight:400;line-height:normal;font-family:sans-serif;font-variant-ligatures:normal;font-variant-position:normal;font-variant-caps:normal;font-variant-numeric:normal;font-variant-alternates:normal;font-feature-settings:normal;text-indent:0;text-align:start;text-decoration:none;text-decoration-line:none;text-decoration-style:solid;text-decoration-color:#000000;text-transform:none;text-orientation:mixed;white-space:normal;shape-padding:0;overflow:visible;isolation:auto;mix-blend-mode:normal;fill:#555761" />
  <path
     class="error"
     d="m 12.5,9 a 3.5,3.5 0 1 0 0,7 3.5,3.5 0 0 0 0,-7 z M 12,10 h 1 v 3 h -1 z m 0,4 h 1 v 1 h -1 z"
     overflow="visible"
     style="color:#bebebe;overflow:visible;fill:#ef2929;marker:none"
     id="path4" />
</svg>

<?xml version="1.0" encoding="UTF-8" standalone="no"?>
<svg
   id="svg8"
   version="1.1"
   width="16"
   height="16"
   sodipodi:docname="appointment-missed-symbolic.svg"
   inkscape:version="1.2.2 (b0a8486541, 2022-12-01)"
   xmlns:inkscape="http://www.inkscape.org/namespaces/inkscape"
   xmlns:sodipodi="http://sodipodi.sourceforge.net/DTD/sodipodi-0.dtd"
   xmlns="http://www.w3.org/2000/svg"
   xmlns:svg="http://www.w3.org/2000/svg"
   xmlns:rdf="http://www.w3.org/1999/02/22-rdf-syntax-ns#"
   xmlns:cc="http://creativecommons.org/ns#"
   xmlns:dc="http://purl.org/dc/elements/1.1/">
  <sodipodi:namedview
     id="namedview16955"
     pagecolor="#ffffff"
     bordercolor="#000000"
     borderopacity="0.25"
     inkscape:showpageshadow="2"
     inkscape:pageopacity="0.0"
     inkscape:pagecheckerboard="0"
     inkscape:deskcolor="#d1d1d1"
     showgrid="false"
     inkscape:zoom="54.75"
     inkscape:cx="8.5570776"
     inkscape:cy="6.5388128"
     inkscape:window-width="1390"
     inkscape:window-height="1053"
     inkscape:window-x="130"
     inkscape:window-y="1000"
     inkscape:window-maximized="0"
     inkscape:current-layer="svg8" />
  <metadata
     id="metadata14">
    <rdf:RDF>
      <cc:Work
         rdf:about="">
        <dc:format>image/svg+xml</dc:format>
        <dc:type
           rdf:resource="http://purl.org/dc/dcmitype/StillImage" />
      </cc:Work>
    </rdf:RDF>
  </metadata>
  <defs
     id="defs12" />
  <path
     id="path2"
     d="M 7.5,0 C 3.37,0 0,3.37 0,7.5 0,11.63 3.37,15 7.5,15 7.928,15 8.3449062,14.955719 8.7539062,14.886719 A 4.411,4.411 0 0 1 8.0917969,12.96875 C 7.8977969,12.98875 7.7,13 7.5,13 4.45,13 2,10.55 2,7.5 2,4.45 4.45,2 7.5,2 A 5.485,5.485 0 0 1 12.966797,8.09375 4.409,4.409 0 0 1 14.884766,8.7539062 7.46,7.46 0 0 0 15,7.5 C 15,3.37 11.63,0 7.5,0 Z m 2.964844,4.0019531 a 0.5,0.5 0 0 0 -0.04883,0.00391 0.425,0.425 0 0 0 -0.02344,0.00391 v 0.00781 a 0.5,0.5 0 0 0 -0.25,0.15625 L 7.4863281,6.8222656 5.8300781,5.1738281 a 0.5,0.5 0 1 0 -0.6875,0.6875 l 2,2 a 0.5,0.5 0 0 0 0.6875,0 l 2.9999999,-3 a 0.5,0.5 0 0 0 -0.365234,-0.859375 z"
     style="color:#000000;font-weight:400;line-height:normal;font-family:sans-serif;font-variant-ligatures:normal;font-variant-position:normal;font-variant-caps:normal;font-variant-numeric:normal;font-variant-alternates:normal;font-feature-settings:normal;text-indent:0;text-align:start;text-decoration:none;text-decoration-line:none;text-decoration-style:solid;text-decoration-color:#000000;text-transform:none;text-orientation:mixed;white-space:normal;shape-padding:0;overflow:visible;isolation:auto;mix-blend-mode:normal;fill:#555761" />
  <path
     class="error"
     d="m 12.5,9 a 3.5,3.5 0 1 0 0,7 3.5,3.5 0 0 0 0,-7 z M 12,10 h 1 v 3 h -1 z m 0,4 h 1 v 1 h -1 z"
     overflow="visible"
     style="color:#bebebe;overflow:visible;fill:#ef2929;marker:none"
     id="path4" />
</svg>
